apex/img/step-item-icon5.svg

<svg width="111" height="111" viewBox="0 0 111 111" fill="none" xmlns="http://www.w3.org/2000/svg">
<path d="M85.9768 0H24.0735C10.7781 0 0 10.7781 0 24.0735V65.3424C0 78.6378 10.7781 89.4159 24.0735 89.4159H41.2689V106.611C41.2579 108.51 42.7885 110.059 44.688 110.07C45.612 110.076 46.4991 109.709 47.1497 109.053L66.7524 89.4159H85.9768C99.2723 89.4159 110.05 78.6378 110.05 65.3424V24.0735C110.05 10.7781 99.2721 0 85.9768 0ZM103.172 65.3424C103.172 74.8392 95.4736 82.5378 85.9768 82.5378H65.3424C64.4282 82.5324 63.5498 82.8913 62.9006 83.5351L48.147 98.3231V85.9768C48.147 84.0774 46.6074 82.5378 44.7079 82.5378H24.0735C14.5767 82.5378 6.87815 74.8392 6.87815 65.3424V24.0735C6.87815 14.5767 14.5767 6.87815 24.0735 6.87815H85.9768C95.4736 6.87815 103.172 14.5767 103.172 24.0735V65.3424Z" fill="#E5A132"/>
<path d="M59.22 50.028L64.296 59.064C64.656 59.688 64.464 60 63.72 60H61.38C60.66 60 60.12 59.688 59.76 59.064L54.72 50.028H51.66V58.92C51.66 59.64 51.3 60 50.58 60H48.42C47.7 60 47.34 59.64 47.34 58.92V35.088C47.34 34.368 47.7 34.008 48.42 34.008H60.948C62.388 34.008 63.408 34.26 64.008 34.764C64.608 35.268 64.908 36.288 64.908 37.824V46.212C64.908 47.748 64.608 48.768 64.008 49.272C63.408 49.776 62.388 50.028 60.948 50.028H59.22ZM59.508 45.888C60.012 45.888 60.324 45.84 60.444 45.744C60.564 45.648 60.624 45.348 60.624 44.844V39.228C60.624 38.724 60.552 38.424 60.408 38.328C60.288 38.208 59.988 38.148 59.508 38.148H51.696V45.888H59.508Z" fill="#E5A132"/>
</svg>

<svg width="111" height="111" fill="none" xmlns="http://www.w3.org/2000/svg"><path d="M85.977 0H24.073C10.778 0 0 10.778 0 24.073v41.27c0 13.295 10.778 24.073 24.073 24.073H41.27v17.195a3.44 3.44 0 005.88 2.442l19.603-19.637h19.225c13.295 0 24.073-10.778 24.073-24.074V24.073C110.05 10.778 99.272 0 85.977 0zm17.195 65.342c0 9.497-7.698 17.196-17.195 17.196H65.342a3.439 3.439 0 00-2.441.997L48.147 98.323V85.977c0-1.9-1.54-3.44-3.44-3.44H24.074c-9.496 0-17.195-7.698-17.195-17.195V24.073c0-9.496 7.699-17.195 17.195-17.195h61.904c9.497 0 17.195 7.699 17.195 17.195v41.27z" fill="#E5A132"/><path d="M59.22 50.028l5.076 9.036c.36.624.168.936-.576.936h-2.34c-.72 0-1.26-.312-1.62-.936l-5.04-9.036h-3.06v8.892c0 .72-.36 1.08-1.08 1.08h-2.16c-.72 0-1.08-.36-1.08-1.08V35.088c0-.72.36-1.08 1.08-1.08h12.528c1.44 0 2.46.252 3.06.756.6.504.9 1.524.9 3.06v8.388c0 1.536-.3 2.556-.9 3.06-.6.504-1.62.756-3.06.756H59.22zm.288-4.14c.504 0 .816-.048.936-.144.12-.096.18-.396.18-.9v-5.616c0-.504-.072-.804-.216-.9-.12-.12-.42-.18-.9-.18h-7.812v7.74h7.812z" fill="#E5A132"/></svg>
